dist/images/phone.svg

<svg width="140" height="265" viewBox="0 0 140 265" fill="none" xmlns="http://www.w3.org/2000/svg">
<path fill-rule="evenodd" clip-rule="evenodd" d="M116.974 0.308592L21.6508 0.308593C10.4078 0.308594 1.32639 9.00918 1.3668 19.7419L2.217 245.538C2.25741 256.271 11.4044 264.972 22.6473 264.972L117.971 264.972C129.214 264.972 138.295 256.271 138.255 245.538L137.676 91.9228C138.212 91.9228 138.644 91.5085 138.642 90.9974L138.533 62.0017C138.531 61.4906 138.095 61.0763 137.56 61.0763L137.404 19.7419C137.364 9.00918 128.217 0.308592 116.974 0.308592ZM2.98245 19.7419C2.94524 9.86098 11.3059 1.85092 21.6566 1.85092L116.98 1.85092C127.331 1.85092 135.752 9.86098 135.789 19.7419L136.639 245.538C136.676 255.419 128.315 263.429 117.965 263.429L22.6415 263.429C12.2909 263.429 3.86985 255.419 3.83265 245.538L2.98245 19.7419ZM1.46435 45.653L1.42718 35.7822C0.891799 35.7822 0.459349 36.1965 0.461273 36.7075L0.491472 44.7276C0.493396 45.2387 0.928966 45.653 1.46435 45.653ZM1.49919 54.9069L1.5712 74.0317C1.03582 74.0317 0.600252 73.6174 0.598327 73.1063L0.533285 55.8323C0.53136 55.3212 0.963811 54.9069 1.49919 54.9069ZM1.6618 98.0921L1.58978 78.9672C1.05441 78.9672 0.621956 79.3815 0.62388 79.8926L0.688923 97.1667C0.690847 97.6777 1.12642 98.0921 1.6618 98.0921Z" fill="#3197F5"/>
<path fill-rule="evenodd" clip-rule="evenodd" d="M129.972 19.7425C129.947 12.9255 124.142 7.40393 117.001 7.40393L105.53 7.40393C104.102 7.40393 102.949 8.50877 102.954 9.87165L102.955 10.1801C102.969 13.9434 99.8139 16.9663 95.8717 16.9663L42.8785 16.9663C38.9363 16.9663 35.7582 13.9434 35.7441 10.1801L35.7429 9.87165C35.7378 8.50877 34.5763 7.40393 33.1486 7.40393L21.6775 7.40393C14.5363 7.40393 8.77307 12.9255 8.79874 19.7425L9.64894 245.539C9.67461 252.356 15.4794 257.878 22.6206 257.878L117.944 257.878C125.085 257.878 130.848 252.356 130.823 245.539L129.972 19.7425ZM21.6566 1.85156L116.98 1.85156C127.32 1.85156 135.752 9.87165 135.789 19.7425L136.639 245.539C136.676 255.41 128.305 263.43 117.965 263.43L22.6415 263.43C12.3013 263.43 3.86977 255.41 3.83261 245.539L2.9824 19.7425C2.94524 9.87165 11.3164 1.85156 21.6566 1.85156Z" fill="#333333"/>
<path opacity="0.6" fill-rule="evenodd" clip-rule="evenodd" d="M48.7788 253.867C48.7772 253.441 49.1376 253.096 49.5837 253.096L91.2675 253.096C91.7136 253.096 92.0766 253.441 92.0782 253.867C92.0798 254.293 91.7194 254.638 91.2733 254.638L49.5895 254.638C49.1434 254.638 48.7804 254.293 48.7788 253.867Z" fill="#333333"/>
</svg>

<svg width="140" height="265" fill="none" xmlns="http://www.w3.org/2000/svg"><path fill-rule="evenodd" clip-rule="evenodd" d="M116.974.309H21.651c-11.243 0-20.325 8.7-20.284 19.433l.85 225.796c.04 10.733 9.187 19.434 20.43 19.434h95.324c11.243 0 20.324-8.701 20.284-19.434l-.579-153.615c.536 0 .968-.415.966-.926l-.109-28.995c-.002-.511-.438-.926-.973-.926l-.156-41.334c-.04-10.733-9.187-19.433-20.43-19.433zM2.982 19.742C2.945 9.86 11.306 1.85 21.657 1.85h95.323c10.351 0 18.772 8.01 18.809 17.89l.85 225.797c.037 9.881-8.324 17.891-18.674 17.891H22.642c-10.351 0-18.772-8.01-18.81-17.891l-.85-225.796zM1.464 45.653l-.037-9.87c-.535 0-.968.413-.966.925l.03 8.02c.002.51.438.925.973.925zm.035 9.254l.072 19.125c-.535 0-.97-.415-.973-.926L.533 55.832c-.002-.51.43-.925.966-.925zm.163 43.185L1.59 78.967c-.536 0-.968.415-.966.926l.065 17.274c.002.51.437.925.973.925z" fill="#3197F5"/><path fill-rule="evenodd" clip-rule="evenodd" d="M129.972 19.742c-.025-6.817-5.83-12.338-12.971-12.338H105.53c-1.428 0-2.581 1.105-2.576 2.468l.001.308c.014 3.763-3.141 6.786-7.083 6.786H42.879c-3.943 0-7.12-3.023-7.135-6.786l-.001-.308c-.005-1.363-1.167-2.468-2.594-2.468H21.677c-7.14 0-12.904 5.521-12.878 12.338l.85 225.797c.026 6.817 5.83 12.339 12.972 12.339h95.323c7.141 0 12.904-5.522 12.879-12.339l-.851-225.796zM21.657 1.852h95.323c10.34 0 18.772 8.02 18.809 17.89l.85 225.797c.037 9.871-8.334 17.891-18.674 17.891H22.642c-10.34 0-18.772-8.02-18.81-17.891l-.85-225.796C2.945 9.872 11.316 1.852 21.657 1.852z" fill="#333"/><path opacity=".6" fill-rule="evenodd" clip-rule="evenodd" d="M48.779 253.867c-.002-.426.359-.771.805-.771h41.683c.447 0 .81.345.811.771.002.426-.359.771-.805.771H49.59c-.447 0-.81-.345-.811-.771z" fill="#333"/></svg>
